X:1
T:To Me, Dear Savior
T:To Me, Dear Savior
T:Herbert Howard Booth
T:Herbert Howard Booth, 1889
T:Public Domain Courtesy of the Cyber Hymnal™
T:Public Domain Courtesy of the Cyber Hymnal™
C:Herbert Howard Booth
Z:Public Domain
Z:Courtesy of the Cyber Hymnal™
%%score ( 1 2 ) ( 3 4 )
L:1/8
Q:1/4=100
M:4/4
K:F
V:1 treble 
V:2 treble 
V:3 bass 
V:4 bass 
V:1
 C2 | [FA]3 [F^G] [FA][Fd][Fc]F | [FA]6 C2 | [EA]3 [EG] [EB]2 [CE]2 | [CF]6 C2 | %5
w: 1.~To|me, dear Sav- ior, yes, to|me, Speak|out Thy ut- most|will; What|
w: 2.~To|me, dear Sav- ior, yes, to|me, Thy|gra- cious par- don|show, That|
w: 3.~To|me, dear Sav- ior, yes, to|me, The|flood gates o- pen|wide, That|
w: 4.~To|me, dear Sav- ior, yes, to|me, To|me, the least of|all, With|
w: 5.~To|me, dear Sav- ior, yes, to|me, Thy|sav- ing power be|giv’n; Then|
 [FA]3 [F^G] [FA][FB][Fc][Fd] | [Fc]6 [Fc]2 | [Fd]3 [Fc] [FA]2 F2 | [EG]4 z2 c2 | %9
w: Thy great love doth bid me|do, I|sure- ly can ful-|fill; What|
w: not one sin I’ve ev- er|sinned May|un- for- giv- en|go; That|
w: ev- en I may stoop and|wash With-|in the crim- son|tide; That|
w: all my con- scious- ness of|guilt, Thou|hast for me a|call; With|
w: shall I know why I have|lived, And|what on earth is|heav’n; Then|
 [FA]3 [Fc] [Ff][Fe][Fd][Fc] | ([Ac]4 [GB]2) [DG]2 | [CF]3 [CF] [EG]3 [E^G] | [FA]6 [Gc]2 | %13
w: Thy great love doth bid me|do, * I|sure- ly can ful-|fill; What|
w: not one sin I’ve ev- er|sinned * May|un- for- giv- en|go; That|
w: ev- en I may stoop and|wash * With-|in the crim- son|tide; That|
w: all my con- scious- ness of|guilt, * Thou|hast for me a|call; With|
w: shall I know why I have|lived, * And|what on earth is|heav’n; Then|
 [FA]3 [Ec] [Ff][Fe][Fd][Fc] | ([Ac]4 [GB]2) [DG]2 | [CF]3 F [EA]3 [EG] | [CF]6 || %17
w: Thy great love doth bid me|do, * I|sure- ly can ful-|fill.|
w: not one sin I’ve ev- er|sinned * May|un- for- giv- en|go.|
w: ev- en I may stoop and|wash * With-|in the crim- son|tide.|
w: all my con- scious- ness of|guilt, * Thou|hast for me a|call.|
w: shall I know why I have|lived, * And|what on earth is|heav’n.|
[M:3/4]"^Refrain"[Q:1/4=105] [FA][FB] | [Ac]2 [Bd]2 [Ac]2 |!<(! [FA]2 [GB]2!<)! [Ac]2 | %20
w: |||
w: |||
w: There is|not in my|heart left one|
w: |||
w: |||
 [Af]2!>(! e2 [Bd]2!>)! | [Ac]4 [Ac][Bd] | [Ac]2 [FA]2 [CF]2 | [CF]2 [CE]2 [CF]2 | G6 | %25
w: |||||
w: |||||
w: trea- sure, dear|Lord, That I|can- not yield|glad- ly to|Thee;|
w: |||||
w: |||||
 [CG]4 [CA][CB] | [Cc]2 [Fc]2 [FA]2 | [CF]3 [CE] F2 | [Fd]2 [Fd]2 [^Fc]2 | [GB]4 [DA][DG] | %30
w: |||||
w: |||||
w: * On- ly|let, in Thy|mer- cy, Thy|plead- ings be|heard; They shall|
w: |||||
w: |||||
 [DF]2 [DE]2!p! [DF]2 | [EG]2 [DA]3 [DB] | [Fc]6 | [Ac]4 [GB]2 | [FA]2 [EG]2 [DF]2 | %35
w: |||||
w: |||||
w: glad- ly be|ans- wered by|me,|They shall|glad- ly be|
w: |||||
w: |||||
 E !fermata![EA]3 [EG]2 | F6- | [CF]4 |] %38
w: |||
w: |||
w: ans- wered by|me.||
w: |||
w: |||
V:2
 C2 | x7 F | x6 C2 | x8 | x6 C2 | x8 | x8 | x6 F2 | x6 (FG) | x8 | x8 | x8 | x8 | x8 | x8 | %15
 x3 F x4 | x6 ||[M:3/4] x2 | x6 | x6 | x6 | x6 | x6 | x6 | C4 =B,2 | x6 | x6 | x4 F2 | x6 | x6 | %30
 x6 | x6 | x6 | x6 | x6 | E x5 | C4 D2 | x4 |] %38
V:3
 [F,A,]2 | [F,C]3 [F,=B,] [F,C][F,_B,][A,C][A,C] | [F,C]6 [C,E,]2 | [C,C]3 [C,B,] [C,G,]2 [C,B,]2 | %4
 [F,A,]6 [F,A,]2 | [F,C]3 [F,=B,] [F,C][_B,D][A,C][^G,=B,] | [A,C]6 [A,C]2 | %7
 B,3 [A,C] [F,C]2 [D,=B,]2 | [C,C]4 z2 C2 | [F,C]3 [G,B,] [A,C][A,C]B,[A,C] | %10
 ([^F,_E]4 [G,D]2) [C,B,]2 | [C,A,]3 [C,A,] [C,C]3 [C,C] | [F,C]6 [E,C]2 | %13
 [F,C]3 [G,B,] [A,C][A,C]B,[A,C] | ([^F,_E]4 [G,D]2) [B,,B,]2 | [C,A,]3 [C,A,] [C,C]3 [C,B,] | %16
 [F,A,]6 ||[M:3/4] [F,C][F,C] | [F,F]2 [F,F]2 [F,F]2 | [F,C]2 [F,C]2 [F,C]2 | %20
 [F,C]2 [F,F]2 [F,F]2 | [F,F]4 [F,F][F,F] | [F,F]2 [F,C]2 [F,A,]2 | [F,C]2 [G,B,]2 [F,A,]2 | %24
 ([E,G,]4 [D,F,]2 | [C,E,]4) [C,F,][C,G,] | [F,A,]2 [F,A,]2 [F,C]2 | [F,A,]3 [G,B,] [A,C]2 | %28
 [B,D]2 [B,D]2 [A,D]2 | [G,D]4 [G,C][G,B,] | [D,A,]2 [D,G,]2 [D,A,]2 | [C,C]2 C3 [B,C] | [A,C]6 | %33
 [^F,_E]4 [G,D]2 | [C,C]2 [^C,B,]2 [D,A,]2 | [C,B,] [C,C]3 [C,B,]2 | A,4 B,2 | [F,A,]4 |] %38
V:4
 x2 | x8 | x8 | x8 | x8 | x8 | x8 | =B,3 x5 | x6 (D,E,) | x6 B, x | x8 | x8 | x8 | x6 B, x | x8 | %15
 x8 | x6 ||[M:3/4] x2 | x6 | x6 | x6 | x6 | x6 | x6 | x6 | x6 | x6 | x6 | x6 | x6 | x6 | x2 C3 x | %32
 x6 | x6 | x6 | x6 | F,6- | x4 |] %38

